src/icons/facebook.svg

<svg width="30" height="30" viewBox="0 0 30 30" fill="none" xmlns="http://www.w3.org/2000/svg">
<path d="M15 -0.0314941C6.7116 -0.0314941 -0.0327759 6.71101 -0.0327759 15.0004C-0.0327759 23.2898 6.7116 30.0323 15 30.0323C23.2885 30.0323 30.0328 23.2898 30.0328 15.0004C30.0328 6.71101 23.2885 -0.0314941 15 -0.0314941ZM15 29.031C7.26379 29.031 0.970349 22.7366 0.970349 15.0004C0.970349 7.26413 7.26379 0.969756 15 0.969756C22.7363 0.969756 29.0297 7.26413 29.0297 15.0004C29.0297 22.7366 22.7363 29.031 15 29.031Z" fill="rgba(93, 93, 97, 1)"/>
<path d="M18.2813 6.56254H15.78C12.5944 6.53066 12.1875 8.50223 12.1875 10.636V12.1875H10.7813C10.7177 12.179 10.653 12.1853 10.5923 12.2059C10.5316 12.2264 10.4764 12.2607 10.431 12.3061C10.3857 12.3514 10.3514 12.4066 10.3309 12.4673C10.3103 12.5281 10.304 12.5927 10.3125 12.6563V15.4688C10.304 15.5323 10.3103 15.597 10.3309 15.6577C10.3514 15.7185 10.3857 15.7737 10.431 15.819C10.4764 15.8644 10.5316 15.8986 10.5923 15.9192C10.653 15.9398 10.7177 15.946 10.7813 15.9375H12.1875V22.9688C12.1797 23.0325 12.1865 23.0971 12.2075 23.1577C12.2285 23.2183 12.2631 23.2734 12.3086 23.3186C12.3541 23.3638 12.4093 23.398 12.47 23.4187C12.5308 23.4393 12.5954 23.4457 12.6591 23.4375H15.5231C15.7997 23.4694 16.0238 23.2453 15.9356 22.9688L15.9375 15.9375H18.2813C18.3448 15.946 18.4095 15.9398 18.4702 15.9192C18.531 15.8986 18.5862 15.8644 18.6315 15.819C18.6768 15.7737 18.7111 15.7185 18.7317 15.6577C18.7522 15.597 18.7585 15.5323 18.75 15.4688V12.6563C18.7585 12.5927 18.7522 12.5281 18.7317 12.4673C18.7111 12.4066 18.6768 12.3514 18.6315 12.3061C18.5862 12.2607 18.531 12.2264 18.4702 12.2059C18.4095 12.1853 18.3448 12.179 18.2813 12.1875H15.9347L15.9375 10.7813C16.0284 10.1822 16.0284 10.2797 16.5844 10.3125H18.2616C18.3919 10.2835 18.5306 10.2994 18.6281 10.2047C18.7256 10.11 18.7819 9.98066 18.7491 9.84379V7.03129C18.7577 6.96778 18.7516 6.90313 18.7312 6.84238C18.7107 6.78163 18.6765 6.72642 18.6313 6.68105C18.586 6.63568 18.5308 6.60138 18.4701 6.58083C18.4094 6.56027 18.3448 6.55401 18.2813 6.56254ZM17.7797 9.32254L16.6041 9.27754C15.1481 9.27754 15.0263 10.0678 15.0263 10.8769L15.0225 12.6544C15.0224 12.7202 15.0352 12.7854 15.0603 12.8463C15.0855 12.9071 15.1223 12.9624 15.1688 13.009C15.2153 13.0556 15.2705 13.0926 15.3313 13.1178C15.3921 13.143 15.4573 13.156 15.5231 13.156H17.8125V14.9672H15.525C15.3922 14.9672 15.2647 15.0199 15.1707 15.1138C15.0766 15.2077 15.0237 15.335 15.0234 15.4678L15.0225 22.5H13.125V15.4688C13.125 15.1922 12.9366 14.9682 12.6591 14.9682H11.25V13.1569H12.6591C12.7249 13.157 12.79 13.1441 12.8508 13.1191C12.9116 13.094 12.9669 13.0571 13.0134 13.0107C13.1072 12.916 13.1241 12.7885 13.1241 12.6553V10.635C13.1241 8.53316 13.5488 7.53191 15.7791 7.53191H17.7788V9.32254H17.7797Z" fill="rgba(93, 93, 97, 1)"/>
</svg>

<svg width="30" height="30" fill="none" xmlns="http://www.w3.org/2000/svg"><path d="M15-.031C6.712-.031-.033 6.71-.033 15c0 8.29 6.745 15.032 15.033 15.032S30.033 23.29 30.033 15C30.033 6.711 23.288-.03 15-.03Zm0 29.062c-7.736 0-14.03-6.294-14.03-14.03C.97 7.263 7.264.97 15 .97S29.03 7.264 29.03 15c0 7.737-6.294 14.031-14.03 14.031Z" fill="rgba(93, 93, 97, 1)"/><path d="M18.281 6.563H15.78c-3.186-.032-3.592 1.94-3.592 4.073v1.552H10.78a.417.417 0 0 0-.469.468v2.813a.416.416 0 0 0 .47.469h1.405v7.03a.42.42 0 0 0 .472.47h2.864c.277.031.5-.193.413-.47l.002-7.03h2.343a.416.416 0 0 0 .469-.47v-2.812a.418.418 0 0 0-.469-.469h-2.346l.002-1.406c.091-.599.091-.501.647-.469h1.678c.13-.028.269-.013.366-.107.098-.095.154-.224.121-.361V7.03a.417.417 0 0 0-.468-.468Zm-.501 2.76-1.176-.045c-1.456 0-1.578.79-1.578 1.599l-.003 1.777a.502.502 0 0 0 .5.502h2.29v1.811h-2.288a.501.501 0 0 0-.502.5V22.5h-1.898v-7.031c0-.277-.188-.5-.466-.5H11.25v-1.812h1.41a.502.502 0 0 0 .353-.146c.094-.095.111-.222.111-.356v-2.02c0-2.102.425-3.103 2.655-3.103h2v1.79Z" fill="rgba(93, 93, 97, 1)"/></svg>
